;FLAVOR:RepRap
;TIME:191
;Filament used: 0.181838m
;Layer height: 0.2
;Generated with Cura_SteamEngine 2.5.0
M190 S68
M104 S200
M109 S200
G21 ;metric values
G90 ;absolute positioning
M82 ;set extruder to absolute mode
M107 ;start with the fan off
G28 X0 Y0 ;move X/Y to min endstops
G28 Z0 ;move Z to min endstops
G1 Z15.0 F9000 ;move the platform down 15mm
G92 E0 ;zero the extruded length
G1 F200 E3 ;extrude 3mm of feed stock
G92 E0 ;zero the extruded length again
G1 F9000

G90 ; Explicitly force absolute positioning in case it was not reset previously
G28 ; Home all axes
G0 X2 Y2 Z0.15 F9000 ; Move to the front-left part of the bed
G92 E0 ; Zero the extruder
G1 X40 E25 F500 ; Extrude a fat line of filament to prime and clean the nozzle
G92 E0 ; Zero the extruder
G1 E-1 F500 ; Retract 1 mm
G1 X80 F9000 ; Sweep right to cut any strings

;Put printing message on LCD screen
M117 Printing...

;LAYER_COUNT:20
;LAYER:0
M107
G0 F3600 X96.001 Y41.629 Z0.3
;TYPE:SKIRT
G1 F1500 X96.269 Y41.132 E0.02817
G1 X96.605 Y40.677 E0.05639
G1 X97.002 Y40.274 E0.08461
G1 X97.452 Y39.932 E0.11281
G1 X97.945 Y39.656 E0.141
G1 X98.473 Y39.452 E0.16924
G1 X99.023 Y39.325 E0.1974
G1 X99.646 Y39.276 E0.22858
G1 X117.027 Y39.277 E1.09572
G1 X117.591 Y39.317 E1.12393
G1 X118.144 Y39.436 E1.15215
G1 X118.674 Y39.632 E1.18034
G1 X119.172 Y39.9 E1.20856
G1 X119.626 Y40.237 E1.23676
G1 X120.029 Y40.633 E1.26495
G1 X120.372 Y41.083 E1.29318
G1 X120.647 Y41.576 E1.32134
G1 X120.851 Y42.104 E1.34958
G1 X120.978 Y42.655 E1.37779
G1 X121.027 Y43.277 E1.40892
G1 X121.027 Y60.658 E2.27606
G1 X120.987 Y61.222 E2.30427
G1 X120.868 Y61.775 E2.33249
G1 X120.672 Y62.305 E2.36069
G1 X120.404 Y62.802 E2.38886
G1 X120.068 Y63.257 E2.41707
G1 X119.671 Y63.66 E2.4453
G1 X119.221 Y64.002 E2.4735
G1 X118.728 Y64.278 E2.50168
G1 X118.2 Y64.482 E2.52992
G1 X117.65 Y64.609 E2.55809
G1 X117.027 Y64.658 E2.58926
G1 X99.646 Y64.658 E3.4564
G1 X99.082 Y64.618 E3.48461
G1 X98.529 Y64.499 E3.51283
G1 X97.999 Y64.303 E3.54103
G1 X97.502 Y64.035 E3.5692
G1 X97.047 Y63.699 E3.59742
G1 X96.644 Y63.302 E3.62564
G1 X96.302 Y62.852 E3.65384
G1 X96.026 Y62.359 E3.68202
G1 X95.822 Y61.831 E3.71026
G1 X95.695 Y61.281 E3.73843
G1 X95.646 Y60.658 E3.7696
G1 X95.646 Y43.276 E4.6368
G1 X95.686 Y42.712 E4.665
G1 X95.805 Y42.159 E4.69323
G1 X96.001 Y41.629 E4.72142
G0 F3600 X96.4 Y41.719
G1 F1500 X96.668 Y41.254 E4.74819
G1 X97.001 Y40.834 E4.77493
G1 X97.393 Y40.468 E4.80169
G1 X97.835 Y40.165 E4.82843
G1 X98.318 Y39.93 E4.85522
G1 X98.829 Y39.77 E4.88194
G1 X99.359 Y39.687 E4.9087
G1 X99.646 Y39.676 E4.92303
G1 X117.027 Y39.677 E5.79017
G1 X117.562 Y39.717 E5.81694
G1 X118.085 Y39.836 E5.8437
G1 X118.584 Y40.031 E5.87043
G1 X119.049 Y40.299 E5.8972
G1 X119.469 Y40.632 E5.92394
G1 X119.835 Y41.024 E5.9507
G1 X120.139 Y41.466 E5.97746
G1 X120.373 Y41.949 E6.00424
G1 X120.533 Y42.461 E6.031
G1 X120.616 Y42.99 E6.05772
G1 X120.627 Y43.277 E6.07204
G1 X120.627 Y60.658 E6.93919
G1 X120.587 Y61.193 E6.96595
G1 X120.468 Y61.716 E6.99271
G1 X120.273 Y62.215 E7.01944
G1 X120.005 Y62.68 E7.04622
G1 X119.672 Y63.1 E7.07296
G1 X119.28 Y63.466 E7.09971
G1 X118.838 Y63.769 E7.12645
G1 X118.355 Y64.004 E7.15325
G1 X117.844 Y64.164 E7.17996
G1 X117.314 Y64.247 E7.20673
G1 X117.027 Y64.258 E7.22105
G1 X99.646 Y64.258 E8.0882
G1 X99.111 Y64.218 E8.11496
G1 X98.588 Y64.099 E8.14172
G1 X98.089 Y63.904 E8.16845
G1 X97.624 Y63.636 E8.19523
G1 X97.204 Y63.303 E8.22197
G1 X96.838 Y62.911 E8.24872
G1 X96.535 Y62.469 E8.27546
G1 X96.3 Y61.986 E8.30226
G1 X96.14 Y61.475 E8.32897
G1 X96.057 Y60.945 E8.35573
G1 X96.046 Y60.658 E8.37006
G1 X96.046 Y43.276 E9.23726
G1 X96.086 Y42.741 E9.26402
G1 X96.205 Y42.218 E9.29078
G1 X96.4 Y41.719 E9.31751
G0 F3600 X96.799 Y41.814
G1 F1500 X97.065 Y41.384 E9.34273
G1 X97.395 Y41.001 E9.36796
G1 X97.782 Y40.675 E9.3932
G1 X98.215 Y40.414 E9.41843
G1 X98.683 Y40.224 E9.44362
G1 X99.176 Y40.111 E9.46886
G1 X99.646 Y40.076 E9.49237
G1 X117.027 Y40.077 E10.35951
G1 X117.531 Y40.117 E10.38474
G1 X118.023 Y40.236 E10.40999
G1 X118.489 Y40.431 E10.43519
G1 X118.919 Y40.696 E10.46039
G1 X119.302 Y41.027 E10.48565
G1 X119.628 Y41.413 E10.51085
G1 X119.889 Y41.846 E10.53608
G1 X120.079 Y42.315 E10.56132
G1 X120.192 Y42.807 E10.58651
G1 X120.227 Y43.277 E10.61002
G1 X120.227 Y60.658 E11.47716
G1 X120.187 Y61.162 E11.50239
G1 X120.068 Y61.653 E11.52759
G1 X119.874 Y62.12 E11.55282
G1 X119.608 Y62.55 E11.57805
G1 X119.278 Y62.933 E11.60327
G1 X118.891 Y63.259 E11.62851
G1 X118.458 Y63.52 E11.65374
G1 X117.99 Y63.71 E11.67894
G1 X117.497 Y63.823 E11.70417
G1 X117.027 Y63.858 E11.72768
G1 X99.646 Y63.858 E12.59483
G1 X99.142 Y63.818 E12.62005
G1 X98.651 Y63.699 E12.64526
G1 X98.184 Y63.505 E12.67048
G1 X97.754 Y63.239 E12.69571
G1 X97.371 Y62.909 E12.72093
G1 X97.045 Y62.522 E12.74618
G1 X96.784 Y62.089 E12.7714
G1 X96.594 Y61.621 E12.7966
G1 X96.481 Y61.128 E12.82183
G1 X96.446 Y60.658 E12.84535
G1 X96.446 Y43.276 E13.71254
G1 X96.486 Y42.772 E13.73776
G1 X96.605 Y42.281 E13.76297
G1 X96.799 Y41.814 E13.7882
G1 F1500 E7.2882
G0 F3600 X98.972 Y43.881
G0 X100.251 Y43.881
G0 X100.337 Y44.167
G0 X100.237 Y44.167
;TYPE:WALL-INNER
G1 F1500 E13.7882
G1 X100.237 Y43.867 E13.80316
G1 X100.536 Y43.867 E13.81808
G1 X116.136 Y43.867 E14.59637
G1 X116.436 Y43.867 E14.61134
G1 X116.436 Y44.167 E14.6263
G1 X116.436 Y51.192 E14.97678
G1 X116.436 Y52.742 E15.05411
G1 X116.436 Y59.767 E15.40459
G1 X116.436 Y60.067 E15.41956
G1 X116.136 Y60.067 E15.43452
G1 X100.536 Y60.067 E16.21281
G1 X100.237 Y60.067 E16.22773
G1 X100.237 Y59.767 E16.24269
G1 X100.237 Y52.742 E16.59317
G1 X100.237 Y51.192 E16.6705
G1 X100.237 Y44.167 E17.02098
G0 F3600 X100.536 Y44.167
G1 F1500 X100.536 Y51.192 E17.28296
G1 X101.187 Y51.192 E17.31544
G1 X101.188 Y52.542 E17.3828
G1 X101.188 Y52.742 E17.39277
G1 X100.988 Y52.742 E17.39923
G1 X100.536 Y52.742 E17.42178
G1 X100.536 Y59.767 E17.68377
G1 X116.136 Y59.767 E18.26748
G1 X116.136 Y52.742 E18.53034
G1 X115.485 Y52.742 E18.56282
G1 X115.484 Y51.392 E18.63017
G1 X115.484 Y51.192 E18.64015
G1 X115.684 Y51.192 E18.64661
G1 X116.136 Y51.192 E18.66916
G1 X116.136 Y44.167 E18.93202
G1 X100.536 Y44.167 E19.51574
G0 F3600 X100.936 Y44.567
;TYPE:WALL-OUTER
G1 F1500 X100.936 Y50.792 E19.8263
G1 X101.587 Y50.792 E19.85878
G1 X101.588 Y52.942 E19.96604
G1 X101.588 Y53.142 E19.97602
G1 X101.388 Y53.142 E19.98248
G1 X100.936 Y53.142 E20.00503
G1 X100.936 Y59.367 E20.3156
G1 X115.736 Y59.367 E21.05398
G1 X115.736 Y53.142 E21.36454
G1 X115.085 Y53.142 E21.39702
G1 X115.084 Y50.992 E21.50428
G1 X115.084 Y50.792 E21.51426
G1 X115.284 Y50.792 E21.52072
G1 X115.736 Y50.792 E21.54327
G1 X115.736 Y44.567 E21.85384
G1 X100.936 Y44.567 E22.59221
G0 F3600 X100.936 Y44.767
G0 X100.436 Y44.767
G0 X100.307 Y43.937
G0 X99.837 Y43.467
G1 F1500 X116.836 Y43.467 E23.4403
G1 X116.836 Y60.467 E24.28843
G1 X99.837 Y60.467 E25.13652
G1 X99.837 Y43.467 E25.98465
G0 F3600 X100.037 Y43.467
G0 X100.307 Y43.937
G0 X100.508 Y51.22
G0 X100.586 Y51.372
G0 X100.796 Y51.582
G1 F1500 X100.711 Y52.062 E26.02028
;TYPE:SKIN
G1 X100.346 Y51.697
G0 F3600 X100.416 Y52.332
G1 F1500 X100.645 Y52.562 E26.03647
G0 F3600 X100.508 Y51.22
G0 X100.508 Y44.139
G0 X116.164 Y44.139
G0 X116.164 Y51.22
G0 X115.663 Y52.306
G0 X115.79 Y52.434
G1 F1500 X115.959 Y52.036 E26.0664
G1 X115.593 Y51.671
G0 F3600 X115.86 Y51.372
G1 F1500 X116.255 Y51.767 E26.09427
G0 F3600 X116.036 Y51.767
G0 X116.164 Y51.22
G0 X116.164 Y44.139
G0 X100.307 Y43.937
G0 X100.237 Y43.867
;TIME_ELAPSED:25.124771
;LAYER:1
M140 S68
M106 S255
G0 F5400 X100.237 Y43.867 Z0.5
;TYPE:WALL-INNER
G1 F2250 X100.536 Y43.867 E26.10422
G1 X116.136 Y43.867 E26.62307
G1 X116.436 Y43.867 E26.63305
G1 X116.436 Y44.167 E26.64303
G1 X116.436 Y51.192 E26.87668
G1 X116.436 Y52.742 E26.92824
G1 X116.436 Y59.767 E27.16189
G1 X116.436 Y60.067 E27.17187
G1 X116.136 Y60.067 E27.18184
G1 X100.536 Y60.067 E27.7007
G1 X100.237 Y60.067 E27.71065
G1 X100.237 Y59.767 E27.72062
G1 X100.237 Y52.742 E27.95428
G1 X100.237 Y51.192 E28.00583
G1 X100.237 Y44.167 E28.23948
G1 X100.237 Y43.867 E28.24946
G0 F5400 X100.536 Y44.167
G1 F2250 X100.536 Y51.192 E28.42412
G1 X101.414 Y51.192 E28.45332
G1 X101.414 Y52.742 E28.50487
G1 X100.536 Y52.742 E28.53407
G1 X100.536 Y59.767 E28.70873
G1 X116.136 Y59.767 E29.09787
G1 X116.136 Y52.742 E29.27311
G1 X115.258 Y52.742 E29.30231
G1 X115.258 Y51.192 E29.35387
G1 X116.136 Y51.192 E29.38307
G1 X116.136 Y44.167 E29.55831
G1 X100.536 Y44.167 E29.94745
G0 F5400 X100.936 Y44.567
;TYPE:WALL-OUTER
G1 F1500 X100.936 Y50.792 E30.1545
G1 X101.814 Y50.792 E30.1837
G1 X101.814 Y53.142 E30.26186
G1 X100.936 Y53.142 E30.29106
G1 X100.936 Y59.367 E30.49811
G1 X115.736 Y59.367 E30.99036
G1 X115.736 Y53.142 E31.1974
G1 X114.858 Y53.142 E31.2266
G1 X114.858 Y50.792 E31.30477
G1 X115.736 Y50.792 E31.33397
G1 X115.736 Y44.567 E31.54101
G1 X100.936 Y44.567 E32.03326
G0 F5400 X100.936 Y44.767
G0 X100.436 Y44.767
G0 X100.307 Y43.937
G0 X99.837 Y43.467
G1 F1500 X116.836 Y43.467 E32.59865
G1 X116.836 Y60.467 E33.16407
G1 X99.837 Y60.467 E33.72946
G1 X99.837 Y43.467 E34.29489
G0 F5400 X100.037 Y43.467
G0 X100.307 Y43.937
G0 X100.508 Y51.22
G0 X100.797 Y51.372
;TYPE:SKIN
G1 F1500 X100.416 Y51.752 E34.31278
G0 F5400 X100.416 Y52.318
G1 F1500 X101.232 Y51.502 E34.35117
G1 X101.302 Y51.432
G0 F5400 X101.232 Y52.067
G1 F1500 X100.738 Y52.562 E34.37442
G0 F5400 X100.508 Y51.22
G0 X100.508 Y44.139
G0 X116.164 Y44.139
G0 X116.164 Y51.22
G0 X115.446 Y52.562
G1 F1500 X116.254 Y51.753 E34.41245
G1 X116.324 Y51.683
G0 F5400 X116.07 Y51.372
G1 F1500 X115.437 Y52.005 E34.44223
G1 X115.367 Y52.075
G0 F5400 X115.437 Y51.439
G1 F1500 X115.505 Y51.372 E34.4454
G0 F5400 X116.254 Y52.319
G1 F1500 X116.012 Y52.562 E34.45681
G0 F5400 X116.012 Y52.342
G0 X116.164 Y51.22
G0 X116.164 Y44.139
G0 X100.307 Y43.937
G0 X100.237 Y43.867
;TIME_ELAPSED:35.259283
;LAYER:2
G0 F7200 X100.237 Y43.867 Z0.7
;TYPE:WALL-INNER
G1 F3000 X100.536 Y43.867 E34.46676
G1 X116.136 Y43.867 E34.98561
G1 X116.436 Y43.867 E34.99559
G1 X116.436 Y44.167 E35.00557
G1 X116.436 Y51.192 E35.23922
G1 X116.436 Y52.742 E35.29077
G1 X116.436 Y59.767 E35.52443
G1 X116.436 Y60.067 E35.53441
G1 X116.136 Y60.067 E35.54438
G1 X100.536 Y60.067 E36.06324
G1 X100.237 Y60.067 E36.07319
G1 X100.237 Y59.767 E36.08316
G1 X100.237 Y52.742 E36.31682
G1 X100.237 Y51.192 E36.36837
G1 X100.237 Y44.167 E36.60202
G1 X100.237 Y43.867 E36.612
G0 F7200 X100.536 Y44.167
G1 F3000 X100.536 Y51.192 E36.78666
G1 X101.344 Y51.192 E36.81353
G1 X101.544 Y51.192 E36.82018
G1 X101.544 Y51.392 E36.82449
G1 X101.543 Y52.742 E36.86939
G1 X100.536 Y52.742 E36.90288
G1 X100.536 Y59.767 E37.07754
G1 X116.136 Y59.767 E37.46668
G1 X116.136 Y52.742 E37.64192
G1 X115.328 Y52.742 E37.6688
G1 X115.128 Y52.742 E37.67545
G1 X115.128 Y52.542 E37.67975
G1 X115.129 Y51.192 E37.72466
G1 X116.136 Y51.192 E37.75815
G1 X116.136 Y44.167 E37.93339
G1 X100.536 Y44.167 E38.32253
G0 F7200 X100.936 Y44.567
;TYPE:WALL-OUTER
G1 F1500 X100.936 Y50.792 E38.52958
G1 X101.744 Y50.792 E38.55645
G1 X101.944 Y50.792 E38.5631
G1 X101.944 Y50.992 E38.56741
G1 X101.943 Y53.142 E38.63892
G1 X100.936 Y53.142 E38.67241
G1 X100.936 Y59.367 E38.87946
G1 X115.736 Y59.367 E39.37171
G1 X115.736 Y53.142 E39.57875
G1 X114.928 Y53.142 E39.60562
G1 X114.728 Y53.142 E39.61228
G1 X114.728 Y52.942 E39.61658
G1 X114.729 Y50.792 E39.68809
G1 X115.736 Y50.792 E39.72159
G1 X115.736 Y44.567 E39.92863
G1 X100.936 Y44.567 E40.42088
G0 F7200 X100.936 Y44.767
G0 X100.436 Y44.767
G0 X100.307 Y43.937
G0 X99.837 Y43.467
G1 F1500 X116.836 Y43.467 E40.98627
G1 X116.836 Y60.467 E41.55169
G1 X99.837 Y60.467 E42.11708
G1 X99.837 Y43.467 E42.6825
G0 F7200 X100.037 Y43.467
G0 X100.307 Y43.937
G0 X100.508 Y51.22
G0 X100.586 Y51.372
;TYPE:SKIN
G1 F1500 X101.363 Y52.148 E42.71903
G1 X101.433 Y52.218
G0 F7200 X101.211 Y52.562
G1 F1500 X100.416 Y51.767 E42.75642
G1 X100.346 Y51.697
G0 F7200 X100.416 Y52.332
G1 F1500 X100.645 Y52.562 E42.76722
G0 F7200 X101.363 Y51.582
G1 F1500 X101.152 Y51.372 E42.77712
G0 F7200 X100.508 Y51.22
G0 X100.508 Y44.139
G0 X116.164 Y44.139
G0 X116.164 Y51.22
G0 X115.307 Y51.385
G1 F1500 X116.255 Y52.332 E42.82169
G1 X116.325 Y52.402
G0 F7200 X115.918 Y52.562
G1 F1500 X115.307 Y51.951 E42.85043
G1 X115.237 Y51.881
G0 F7200 X115.86 Y51.372
G1 F1500 X116.255 Y51.767 E42.869
G0 F7200 X116.036 Y51.767
G0 X116.164 Y51.22
G0 X116.164 Y44.139
G0 X100.307 Y43.937
G0 X100.237 Y43.867
;TIME_ELAPSED:44.502684
;LAYER:3
G0 X100.237 Y43.867 Z0.9
;TYPE:WALL-INNER
G1 F3000 X100.536 Y43.867 E42.87895
G1 X116.136 Y43.867 E43.39781
G1 X116.436 Y43.867 E43.40779
G1 X116.436 Y44.167 E43.41776
G1 X116.436 Y51.192 E43.65142
G1 X116.436 Y52.742 E43.70297
G1 X116.436 Y59.767 E43.93662
G1 X116.436 Y60.067 E43.9466
G1 X116.136 Y60.067 E43.95658
G1 X100.536 Y60.067 E44.47544
G1 X100.237 Y60.067 E44.48538
G1 X100.237 Y59.767 E44.49536
G1 X100.237 Y52.742 E44.72901
G1 X100.237 Y51.192 E44.78056
G1 X100.237 Y44.167 E45.01422
G1 X100.237 Y43.867 E45.02419
G0 F7200 X100.536 Y44.167
G1 F3000 X100.536 Y51.192 E45.19885
G1 X101.414 Y51.192 E45.22805
G1 X101.614 Y51.192 E45.2347
G1 X101.614 Y51.392 E45.23901
G1 X101.613 Y52.742 E45.28391
G1 X100.536 Y52.742 E45.31973
G1 X100.536 Y59.767 E45.49439
G1 X116.136 Y59.767 E45.88353
G1 X116.136 Y52.742 E46.05877
G1 X115.258 Y52.742 E46.08797
G1 X115.058 Y52.742 E46.09463
G1 X115.058 Y52.542 E46.09893
G1 X115.059 Y51.192 E46.14384
G1 X116.136 Y51.192 E46.17966
G1 X116.136 Y44.167 E46.3549
G1 X100.536 Y44.167 E46.74404
G0 F7200 X100.936 Y44.567
;TYPE:WALL-OUTER
G1 F1500 X100.936 Y50.792 E46.95108
G1 X101.814 Y50.792 E46.98029
G1 X102.014 Y50.792 E46.98694
G1 X102.014 Y50.992 E46.99125
G1 X102.013 Y53.142 E47.06275
G1 X100.936 Y53.142 E47.09858
G1 X100.936 Y59.367 E47.30562
G1 X115.736 Y59.367 E47.79787
G1 X115.736 Y53.142 E48.00491
G1 X114.858 Y53.142 E48.03412
G1 X114.658 Y53.142 E48.04077
G1 X114.658 Y52.942 E48.04508
G1 X114.659 Y50.792 E48.11659
G1 X115.736 Y50.792 E48.15241
G1 X115.736 Y44.567 E48.35945
G1 X100.936 Y44.567 E48.8517
G0 F7200 X100.936 Y44.767
G0 X100.436 Y44.767
G0 X100.307 Y43.937
G0 X99.837 Y43.467
G1 F1500 X116.836 Y43.467 E49.41709
G1 X116.836 Y60.467 E49.98251
G1 X99.837 Y60.467 E50.5479
G1 X99.837 Y43.467 E51.11332
G0 F7200 X100.037 Y43.467
G0 X100.307 Y43.937
G0 X100.508 Y51.22
G0 X100.797 Y51.372
;TYPE:SKIN
G1 F1500 X100.416 Y51.752 E51.13122
G0 F7200 X100.416 Y52.318
G1 F1500 X101.363 Y51.372 E51.17574
G1 X101.433 Y51.302
G0 F7200 X101.433 Y51.867
G1 F1500 X100.738 Y52.562 E51.20843
G1 X100.668 Y52.632
G0 F7200 X101.304 Y52.562
G1 F1500 X101.432 Y52.434 E51.21445
G0 F7200 X100.508 Y51.22
G0 X100.508 Y44.139
G0 X116.164 Y44.139
G0 X116.164 Y51.22
G0 X115.237 Y52.204
G1 F1500 X116.07 Y51.372 E51.25361
G1 X116.14 Y51.302
G0 F7200 X116.254 Y51.753
G1 F1500 X115.446 Y52.562 E51.29164
G1 X115.376 Y52.632
G0 F7200 X116.012 Y52.562
G1 F1500 X116.254 Y52.319 E51.30305
G0 F7200 X115.505 Y51.372
G1 F1500 X115.237 Y51.639 E51.31563
G0 F7200 X115.458 Y51.639
G0 X116.164 Y52.714
G0 X116.164 Y59.795
G0 X100.508 Y59.795
G0 X100.396 Y52.338
;TIME_ELAPSED:53.920891
;LAYER:4
G0 X100.396 Y52.338 Z1.1
;TYPE:FILL
G1 F3000 X101.383 Y51.351 E51.36205
G1 X101.453 Y51.281
G0 F7200 X101.453 Y51.292
G0 X100.466 Y51.262
G0 X100.536 Y51.192
;TYPE:WALL-INNER
G1 F3000 X101.636 Y51.192 E51.39864
G1 X101.636 Y52.742 E51.45019
G1 X100.536 Y52.742 E51.48678
G1 X100.536 Y59.767 E51.72043
G1 X116.136 Y59.767 E52.23929
G1 X116.136 Y52.742 E52.47294
G1 X115.036 Y52.742 E52.50953
G1 X115.036 Y51.192 E52.56108
G1 X116.136 Y51.192 E52.59767
G1 X116.136 Y44.167 E52.83132
G1 X100.536 Y44.167 E53.35018
G1 X100.536 Y51.192 E53.58383
G0 F7200 X100.237 Y51.192
G1 F3000 X100.237 Y44.167 E53.75849
G1 X100.237 Y43.867 E53.76846
G1 X100.536 Y43.867 E53.77841
G1 X116.136 Y43.867 E54.16755
G1 X116.436 Y43.867 E54.17753
G1 X116.436 Y44.167 E54.18751
G1 X116.436 Y51.192 E54.36275
G1 X116.436 Y52.742 E54.4143
G1 X116.436 Y59.767 E54.58954
G1 X116.436 Y60.067 E54.59952
G1 X116.136 Y60.067 E54.6095
G1 X100.536 Y60.067 E54.99864
G1 X100.237 Y60.067 E55.00859
