;FLAVOR:RepRap
;TIME:2777
;Filament used: 2.34444m
;Layer height: 0.2
;Generated with Cura_SteamEngine 2.5.0
M190 S68
M104 S200
M109 S200
G21 ;metric values
G90 ;absolute positioning
M82 ;set extruder to absolute mode
M107 ;start with the fan off
G28 X0 Y0 ;move X/Y to min endstops
G28 Z0 ;move Z to min endstops
G1 Z15.0 F9000 ;move the platform down 15mm
G92 E0 ;zero the extruded length
G1 F200 E3 ;extrude 3mm of feed stock
G92 E0 ;zero the extruded length again
G1 F9000

G90 ; Explicitly force absolute positioning in case it was not reset previously
G28 ; Home all axes
G0 X2 Y2 Z0.15 F9000 ; Move to the front-left part of the bed
G92 E0 ; Zero the extruder
G1 X40 E25 F500 ; Extrude a fat line of filament to prime and clean the nozzle
G92 E0 ; Zero the extruder
G1 E-1 F500 ; Retract 1 mm
G1 X80 F9000 ; Sweep right to cut any strings

;Put printing message on LCD screen
M117 Printing...

;LAYER_COUNT:20
;LAYER:0
M107
G0 F3600 X32.106 Y59.968 Z0.3
;TYPE:SKIRT
G1 F1500 X32.634 Y59.764 E0.02824
G1 X33.184 Y59.637 E0.0564
G1 X33.807 Y59.588 E0.08758
G1 X172.988 Y59.589 E7.03135
G1 X173.552 Y59.629 E7.05956
G1 X174.105 Y59.748 E7.08778
G1 X174.635 Y59.944 E7.11597
G1 X175.132 Y60.212 E7.14414
G1 X175.587 Y60.548 E7.17236
G1 X175.99 Y60.945 E7.20058
G1 X176.332 Y61.395 E7.22878
G1 X176.608 Y61.888 E7.25697
G1 X176.812 Y62.416 E7.28521
G1 X176.939 Y62.966 E7.31337
G1 X176.988 Y63.589 E7.34455
G1 X176.988 Y98.37 E9.07978
G1 X176.948 Y98.934 E9.10799
G1 X176.829 Y99.487 E9.13621
G1 X176.633 Y100.017 E9.1644
G1 X176.365 Y100.514 E9.19257
G1 X176.029 Y100.969 E9.22079
G1 X175.632 Y101.372 E9.24901
G1 X175.182 Y101.714 E9.27721
G1 X174.689 Y101.99 E9.3054
G1 X174.161 Y102.194 E9.33364
G1 X173.611 Y102.321 E9.3618
G1 X172.988 Y102.37 E9.39298
G1 X33.807 Y102.37 E16.33675
G1 X33.243 Y102.33 E16.36495
G1 X32.69 Y102.211 E16.39318
G1 X32.16 Y102.015 E16.42137
G1 X31.663 Y101.747 E16.44954
G1 X31.208 Y101.411 E16.47776
G1 X30.805 Y101.014 E16.50598
G1 X30.463 Y100.564 E16.53418
G1 X30.187 Y100.071 E16.56237
G1 X29.983 Y99.543 E16.59061
G1 X29.856 Y98.993 E16.61877
G1 X29.807 Y98.37 E16.64994
G1 X29.807 Y63.588 E18.38523
G1 X29.847 Y63.024 E18.41343
G1 X29.966 Y62.471 E18.44166
G1 X30.162 Y61.941 E18.46985
G1 X30.43 Y61.444 E18.49802
G1 X30.766 Y60.989 E18.52624
G1 X31.163 Y60.586 E18.55446
G1 X31.613 Y60.244 E18.58266
G1 X32.106 Y59.968 E18.61085
G0 F3600 X32.479 Y60.242
G1 F1500 X32.99 Y60.082 E18.63756
G1 X33.52 Y59.999 E18.66432
G1 X33.807 Y59.988 E18.67865
G1 X172.988 Y59.989 E25.62242
G1 X173.523 Y60.029 E25.64919
G1 X174.046 Y60.148 E25.67595
G1 X174.545 Y60.343 E25.70268
G1 X175.01 Y60.611 E25.72945
G1 X175.43 Y60.944 E25.75619
G1 X175.796 Y61.336 E25.78295
G1 X176.099 Y61.778 E25.80968
G1 X176.334 Y62.261 E25.83648
G1 X176.494 Y62.772 E25.8632
G1 X176.577 Y63.302 E25.88996
G1 X176.588 Y63.589 E25.90429
G1 X176.588 Y98.37 E27.63952
G1 X176.548 Y98.905 E27.66629
G1 X176.429 Y99.428 E27.69305
G1 X176.234 Y99.927 E27.71977
G1 X175.966 Y100.392 E27.74655
G1 X175.633 Y100.812 E27.77329
G1 X175.241 Y101.178 E27.80005
G1 X174.799 Y101.481 E27.82678
G1 X174.316 Y101.716 E27.85358
G1 X173.805 Y101.876 E27.8803
G1 X173.275 Y101.959 E27.90706
G1 X172.988 Y101.97 E27.92139
G1 X33.807 Y101.97 E34.86516
G1 X33.272 Y101.93 E34.89192
G1 X32.749 Y101.811 E34.91868
G1 X32.25 Y101.616 E34.94541
G1 X31.785 Y101.348 E34.97219
G1 X31.365 Y101.015 E34.99893
G1 X30.999 Y100.623 E35.02568
G1 X30.696 Y100.181 E35.05242
G1 X30.461 Y99.698 E35.07922
G1 X30.301 Y99.187 E35.10593
G1 X30.218 Y98.657 E35.1327
G1 X30.207 Y98.37 E35.14702
G1 X30.207 Y63.588 E36.88231
G1 X30.247 Y63.053 E36.90907
G1 X30.366 Y62.53 E36.93583
G1 X30.561 Y62.031 E36.96256
G1 X30.829 Y61.566 E36.98934
G1 X31.162 Y61.146 E37.01608
G1 X31.554 Y60.78 E37.04283
G1 X31.996 Y60.477 E37.06957
G1 X32.479 Y60.242 E37.09637
G0 F3600 X32.376 Y60.726
G1 F1500 X32.844 Y60.536 E37.12157
G1 X33.337 Y60.423 E37.1468
G1 X33.807 Y60.388 E37.17031
G1 X172.988 Y60.389 E44.11408
G1 X173.492 Y60.429 E44.1393
G1 X173.983 Y60.548 E44.16451
G1 X174.45 Y60.742 E44.18974
G1 X174.88 Y61.008 E44.21496
G1 X175.263 Y61.338 E44.24019
G1 X175.589 Y61.725 E44.26543
G1 X175.85 Y62.158 E44.29065
G1 X176.04 Y62.626 E44.31585
G1 X176.153 Y63.119 E44.34109
G1 X176.188 Y63.589 E44.3646
G1 X176.188 Y98.37 E46.09983
G1 X176.148 Y98.874 E46.12506
G1 X176.029 Y99.365 E46.15026
G1 X175.835 Y99.832 E46.17549
G1 X175.569 Y100.262 E46.20072
G1 X175.239 Y100.645 E46.22594
G1 X174.852 Y100.971 E46.25118
G1 X174.419 Y101.232 E46.27641
G1 X173.951 Y101.422 E46.30161
G1 X173.458 Y101.535 E46.32684
G1 X172.988 Y101.57 E46.35035
G1 X33.807 Y101.57 E53.29412
G1 X33.303 Y101.53 E53.31935
G1 X32.812 Y101.411 E53.34455
G1 X32.345 Y101.217 E53.36978
G1 X31.915 Y100.951 E53.39501
G1 X31.532 Y100.621 E53.42023
G1 X31.206 Y100.234 E53.44547
G1 X30.945 Y99.801 E53.4707
G1 X30.755 Y99.333 E53.4959
G1 X30.642 Y98.84 E53.52113
G1 X30.607 Y98.37 E53.54464
G1 X30.607 Y63.588 E55.27992
G1 X30.647 Y63.084 E55.30515
G1 X30.766 Y62.593 E55.33035
G1 X30.96 Y62.126 E55.35558
G1 X31.226 Y61.696 E55.38081
G1 X31.556 Y61.313 E55.40603
G1 X31.943 Y60.987 E55.43127
G1 X32.376 Y60.726 E55.4565
G1 F1500 E48.9565
G0 F3600 X34.412 Y62.914
G0 X34.412 Y64.193
G0 X34.698 Y64.279
G0 X34.698 Y64.179
;TYPE:WALL-INNER
G1 F1500 E55.4565
G1 X50.298 Y64.179 E56.23479
G1 X52.098 Y64.179 E56.32459
G1 X67.698 Y64.179 E57.10287
G1 X69.498 Y64.179 E57.19268
G1 X85.098 Y64.179 E57.97096
G1 X86.898 Y64.179 E58.06077
G1 X102.497 Y64.179 E58.839
G1 X104.297 Y64.179 E58.92881
G1 X119.897 Y64.179 E59.70709
G1 X121.697 Y64.179 E59.7969
G1 X137.297 Y64.179 E60.57518
G1 X139.097 Y64.179 E60.66499
G1 X154.697 Y64.179 E61.44327
G1 X156.497 Y64.179 E61.53308
G1 X172.097 Y64.179 E62.31136
G1 X172.397 Y64.179 E62.32633
G1 X172.397 Y64.479 E62.3413
G1 X172.397 Y71.504 E62.69177
G1 X172.397 Y73.054 E62.7691
G1 X172.397 Y80.079 E63.11958
G1 X172.397 Y81.879 E63.20939
G1 X172.397 Y88.904 E63.55986
G1 X172.397 Y90.454 E63.63719
G1 X172.397 Y97.479 E63.98767
G1 X172.397 Y97.779 E64.00264
G1 X172.097 Y97.779 E64.01761
G1 X156.497 Y97.779 E64.79589
G1 X154.697 Y97.779 E64.8857
G1 X139.097 Y97.779 E65.66398
G1 X137.297 Y97.779 E65.75379
G1 X121.697 Y97.779 E66.53207
G1 X119.897 Y97.779 E66.62188
G1 X104.297 Y97.779 E67.40016
G1 X102.497 Y97.779 E67.48997
G1 X86.898 Y97.779 E68.2682
G1 X85.098 Y97.779 E68.358
G1 X69.498 Y97.779 E69.13629
G1 X67.698 Y97.779 E69.22609
G1 X52.098 Y97.779 E70.00438
G1 X50.298 Y97.779 E70.09418
G1 X34.698 Y97.779 E70.87247
G1 X34.398 Y97.779 E70.88744
G1 X34.398 Y97.479 E70.90241
G1 X34.398 Y90.454 E71.25288
G1 X34.398 Y88.904 E71.33021
G1 X34.398 Y81.879 E71.68069
G1 X34.398 Y80.079 E71.77049
G1 X34.398 Y73.054 E72.12097
G1 X34.398 Y71.504 E72.1983
G1 X34.398 Y64.479 E72.54878
G1 X34.398 Y64.179 E72.56375
G1 X34.698 Y64.179 E72.57872
G0 F3600 X34.698 Y64.479
G1 F1500 X34.698 Y71.504 E72.84157
G1 X35.409 Y71.504 E72.87705
G1 X35.41 Y72.854 E72.9444
G1 X35.41 Y73.054 E72.95438
G1 X35.21 Y73.054 E72.96084
G1 X34.698 Y73.054 E72.98638
G1 X34.698 Y80.079 E73.24924
G1 X50.298 Y80.079 E74.02753
G1 X50.298 Y73.054 E74.37801
G1 X49.587 Y73.054 E74.41348
G1 X49.586 Y71.704 E74.48083
G1 X49.586 Y71.504 E74.49081
G1 X49.786 Y71.504 E74.49727
G1 X50.298 Y71.504 E74.52281
G1 X50.298 Y64.479 E74.87329
G1 X34.698 Y64.479 E75.45701
G0 F3600 X34.628 Y64.409
G0 X52.028 Y64.409
G0 X52.098 Y64.479
G1 F1500 X52.098 Y71.504 E75.80749
G1 X52.809 Y71.504 E75.84296
G1 X52.81 Y72.854 E75.91031
G1 X52.81 Y73.054 E75.92029
G1 X52.61 Y73.054 E75.92675
G1 X52.098 Y73.054 E75.95229
G1 X52.098 Y80.079 E76.30277
G1 X66.505 Y80.079 E77.02154
G1 X66.593 Y80.079 E77.02593
G1 X66.72 Y80.079 E77.03226
G1 X66.593 Y80.328 E77.03532
G1 X66.58 Y80.415 E77.03908
G1 X66.491 Y80.979 E77.06757
G1 X66.58 Y81.543 E77.09605
G1 X66.593 Y81.63 E77.10044
G1 X66.72 Y81.879 E77.11439
G1 X66.593 Y81.879
G1 X66.505 Y81.879 E77.11815
G1 X52.098 Y81.879 E77.83692
G1 X52.098 Y88.904 E78.1874
G1 X52.809 Y88.904 E78.22287
G1 X52.81 Y90.254 E78.29022
G1 X52.81 Y90.454 E78.3002
G1 X52.61 Y90.454 E78.30666
G1 X52.098 Y90.454 E78.3322
G1 X52.098 Y97.479 E78.68268
G1 X67.698 Y97.479 E79.2664
G1 X67.698 Y90.454 E79.61688
G1 X66.987 Y90.454 E79.65235
G1 X66.986 Y89.104 E79.7197
G1 X66.986 Y88.904 E79.72968
G1 X67.186 Y88.904 E79.73614
G1 X67.698 Y88.904 E79.76168
G1 X67.698 Y83.072 E80.05264
G1 X67.698 Y82.983 E80.05708
G1 X67.698 Y82.857 E80.06337
G1 X67.946 Y82.983 E80.0664
G1 X68.033 Y82.997 E80.07016
G1 X68.598 Y83.087 E80.0987
G1 X69.163 Y82.997 E80.12724
G1 X69.25 Y82.983 E80.13164
G1 X69.498 Y82.856 E80.14554
G1 X69.498 Y82.983
G1 X69.498 Y83.072 E80.14934
G1 X69.498 Y88.904 E80.4403
G1 X70.209 Y88.904 E80.47578
G1 X70.21 Y90.254 E80.54313
G1 X70.21 Y90.454 E80.55311
G1 X70.01 Y90.454 E80.55957
G1 X69.498 Y90.454 E80.58511
G1 X69.498 Y97.479 E80.93559
G1 X85.098 Y97.479 E81.5193
G1 X85.098 Y90.454 E81.86978
G1 X84.387 Y90.454 E81.90526
G1 X84.386 Y89.104 E81.97261
G1 X84.386 Y88.904 E81.98259
G1 X84.586 Y88.904 E81.98905
G1 X85.098 Y88.904 E82.01459
G1 X85.098 Y81.879 E82.36507
G1 X70.691 Y81.879 E83.08384
G1 X70.602 Y81.879 E83.08828
G1 X70.475 Y81.879 E83.09461
G1 X70.602 Y81.631 E83.09763
G1 X70.616 Y81.544 E83.10139
G1 X70.706 Y80.979 E83.12993
G1 X70.616 Y80.414 E83.15847
G1 X70.602 Y80.327 E83.16287
G1 X70.476 Y80.079 E83.17675
G1 X70.602 Y80.079
G1 X70.691 Y80.079 E83.18055
G1 X85.098 Y80.079 E83.89932
G1 X85.098 Y73.054 E84.2498
G1 X84.387 Y73.054 E84.28527
G1 X84.386 Y71.704 E84.35262
G1 X84.386 Y71.504 E84.3626
G1 X84.586 Y71.504 E84.36906
G1 X85.098 Y71.504 E84.39461
G1 X85.098 Y64.479 E84.74509
G1 X69.498 Y64.479 E85.3288
G1 X69.498 Y71.504 E85.67928
G1 X70.209 Y71.504 E85.71475
G1 X70.21 Y72.854 E85.7821
G1 X70.21 Y73.054 E85.79208
G1 X70.01 Y73.054 E85.79854
G1 X69.498 Y73.054 E85.82409
G1 X69.498 Y78.886 E86.11505
G1 X69.498 Y78.974 E86.11944
G1 X69.498 Y79.101 E86.12577
G1 X69.249 Y78.974 E86.12883
G1 X69.162 Y78.961 E86.13259
G1 X68.598 Y78.872 E86.16107
G1 X68.034 Y78.961 E86.18956
G1 X67.947 Y78.974 E86.19395
G1 X67.698 Y79.101 E86.20789
G1 X67.698 Y78.974
G1 X67.698 Y78.886 E86.21166
G1 X67.698 Y73.054 E86.50262
G1 X66.987 Y73.054 E86.53809
G1 X66.986 Y71.704 E86.60544
G1 X66.986 Y71.504 E86.61542
G1 X67.186 Y71.504 E86.62188
G1 X67.698 Y71.504 E86.64742
G1 X67.698 Y64.479 E86.9979
G1 X52.098 Y64.479 E87.58162
G0 F3600 X52.028 Y64.409
G0 X50.368 Y81.809
G0 X50.298 Y81.879
G1 F1500 X34.698 Y81.879 E88.35991
G1 X34.698 Y88.904 E88.62276
G1 X35.409 Y88.904 E88.65824
G1 X35.41 Y90.254 E88.72559
G1 X35.41 Y90.454 E88.73557
G1 X35.21 Y90.454 E88.74203
G1 X34.698 Y90.454 E88.76757
G1 X34.698 Y97.479 E89.03043
G1 X50.298 Y97.479 E89.61414
G1 X50.298 Y90.454 E89.96462
G1 X49.587 Y90.454 E90.0001
G1 X49.586 Y89.104 E90.06745
G1 X49.586 Y88.904 E90.07743
G1 X49.786 Y88.904 E90.08389
G1 X50.298 Y88.904 E90.10943
G1 X50.298 Y81.879 E90.45991
G0 F3600 X50.368 Y81.809
G0 X52.07 Y97.507
G0 X85.126 Y97.507
G0 X86.828 Y81.809
G0 X86.898 Y81.879
G1 F1500 X86.898 Y88.904 E90.81039
G1 X87.609 Y88.904 E90.84586
G1 X87.61 Y90.254 E90.91321
G1 X87.61 Y90.454 E90.92319
G1 X87.41 Y90.454 E90.92965
G1 X86.898 Y90.454 E90.95519
G1 X86.898 Y97.479 E91.30567
G1 X102.497 Y97.479 E91.88935
G1 X102.497 Y90.454 E92.23983
G1 X101.786 Y90.454 E92.2753
G1 X101.785 Y89.104 E92.34265
G1 X101.785 Y88.904 E92.35263
G1 X101.985 Y88.904 E92.35909
G1 X102.497 Y88.904 E92.38464
G1 X102.497 Y81.879 E92.73511
G1 X86.898 Y81.879 E93.51335
G0 F3600 X86.828 Y81.809
G0 X104.227 Y81.809
G0 X104.297 Y81.879
G1 F1500 X104.297 Y88.904 E93.86383
G1 X105.008 Y88.904 E93.8993
G1 X105.009 Y90.254 E93.96665
G1 X105.009 Y90.454 E93.97663
G1 X104.809 Y90.454 E93.98309
G1 X104.297 Y90.454 E94.00864
G1 X104.297 Y97.479 E94.35911
G1 X119.897 Y97.479 E94.94283
G1 X119.897 Y90.454 E95.29331
G1 X119.186 Y90.454 E95.32878
G1 X119.185 Y89.104 E95.39613
G1 X119.185 Y88.904 E95.40611
G1 X119.385 Y88.904 E95.41257
G1 X119.897 Y88.904 E95.43812
G1 X119.897 Y81.879 E95.78859
G1 X104.297 Y81.879 E96.56688
G0 F3600 X104.227 Y81.809
G0 X104.227 Y80.149
G0 X104.297 Y80.079
G1 F1500 X119.897 Y80.079 E97.34517
G1 X119.897 Y73.054 E97.69565
G1 X119.186 Y73.054 E97.73112
G1 X119.185 Y71.704 E97.79847
G1 X119.185 Y71.504 E97.80845
G1 X119.385 Y71.504 E97.81491
G1 X119.897 Y71.504 E97.84045
G1 X119.897 Y64.479 E98.19093
G1 X104.297 Y64.479 E98.77465
G1 X104.297 Y71.504 E99.12513
G1 X105.008 Y71.504 E99.1606
G1 X105.009 Y72.854 E99.22795
G1 X105.009 Y73.054 E99.23793
G1 X104.809 Y73.054 E99.24439
G1 X104.297 Y73.054 E99.26993
G1 X104.297 Y80.079 E99.62041
G0 F3600 X104.227 Y80.149
G0 X102.567 Y80.149
G0 X102.497 Y80.079
G1 F1500 X102.497 Y73.054 E99.97089
G1 X101.786 Y73.054 E100.00636
G1 X101.785 Y71.704 E100.07371
G1 X101.785 Y71.504 E100.08369
G1 X101.985 Y71.504 E100.09015
G1 X102.497 Y71.504 E100.1157
G1 X102.497 Y64.479 E100.46617
G1 X86.898 Y64.479 E101.04985
G1 X86.898 Y71.504 E101.40033
G1 X87.609 Y71.504 E101.4358
G1 X87.61 Y72.854 E101.50315
G1 X87.61 Y73.054 E101.51313
G1 X87.41 Y73.054 E101.51959
G1 X86.898 Y73.054 E101.54514
G1 X86.898 Y80.079 E101.89562
G1 X102.497 Y80.079 E102.67385
G0 F3600 X102.567 Y80.149
G0 X121.627 Y80.149
G0 X121.697 Y80.079
G1 F1500 X136.104 Y80.079 E103.39262
G1 X136.192 Y80.079 E103.39701
G1 X136.319 Y80.079 E103.40335
G1 X136.192 Y80.328 E103.40641
G1 X136.179 Y80.415 E103.41016
G1 X136.09 Y80.979 E103.43865
G1 X136.179 Y81.543 E103.46714
G1 X136.192 Y81.629 E103.47148
G1 X136.319 Y81.879 E103.48546
G1 X136.192 Y81.879
G1 X136.105 Y81.879 E103.48919
G1 X121.697 Y81.879 E104.20801
G1 X121.697 Y88.904 E104.55849
G1 X122.408 Y88.904 E104.59396
G1 X122.409 Y90.254 E104.66131
G1 X122.409 Y90.454 E104.67129
G1 X122.209 Y90.454 E104.67775
G1 X121.697 Y90.454 E104.7033
G1 X121.697 Y97.479 E105.05377
G1 X137.297 Y97.479 E105.63749
G1 X137.297 Y90.454 E105.98797
G1 X136.586 Y90.454 E106.02344
G1 X136.585 Y89.104 E106.09079
G1 X136.585 Y88.904 E106.10077
G1 X136.785 Y88.904 E106.10723
G1 X137.297 Y88.904 E106.13277
G1 X137.297 Y83.072 E106.42373
G1 X137.297 Y82.983 E106.42817
G1 X137.297 Y82.857 E106.43446
G1 X137.545 Y82.983 E106.43749
G1 X137.632 Y82.997 E106.44125
G1 X138.197 Y83.087 E106.46979
G1 X138.762 Y82.997 E106.49833
G1 X138.849 Y82.983 E106.50273
G1 X139.097 Y82.856 E106.51663
G1 X139.097 Y82.983
G1 X139.097 Y83.072 E106.52044
G1 X139.097 Y88.904 E106.8114
G1 X139.808 Y88.904 E106.84687
G1 X139.809 Y90.254 E106.91422
G1 X139.809 Y90.454 E106.9242
G1 X139.609 Y90.454 E106.93066
G1 X139.097 Y90.454 E106.9562
G1 X139.097 Y97.479 E107.30668
G1 X154.697 Y97.479 E107.8904
G1 X154.697 Y90.454 E108.24088
G1 X153.986 Y90.454 E108.27635
G1 X153.985 Y89.104 E108.3437
G1 X153.985 Y88.904 E108.35368
G1 X154.185 Y88.904 E108.36014
G1 X154.697 Y88.904 E108.38568
G1 X154.697 Y81.879 E108.73616
G1 X140.29 Y81.879 E109.45493
G1 X140.201 Y81.879 E109.45937
G1 X140.074 Y81.879 E109.4657
G1 X140.201 Y81.631 E109.46872
G1 X140.215 Y81.544 E109.47248
G1 X140.305 Y80.979 E109.50102
G1 X140.215 Y80.414 E109.52957
G1 X140.201 Y80.327 E109.53396
G1 X140.075 Y80.079 E109.54784
G1 X140.201 Y80.079
G1 X140.29 Y80.079 E109.55165
G1 X154.697 Y80.079 E110.27041
G1 X154.697 Y73.054 E110.62089
G1 X153.986 Y73.054 E110.65636
G1 X153.985 Y71.704 E110.72372
G1 X153.985 Y71.504 E110.73369
G1 X154.185 Y71.504 E110.74015
G1 X154.697 Y71.504 E110.7657
G1 X154.697 Y64.479 E111.11618
G1 X139.097 Y64.479 E111.69989
G1 X139.097 Y71.504 E112.05037
G1 X139.808 Y71.504 E112.08584
G1 X139.809 Y72.854 E112.15319
G1 X139.809 Y73.054 E112.16317
G1 X139.609 Y73.054 E112.16963
G1 X139.097 Y73.054 E112.19518
G1 X139.097 Y78.886 E112.48614
G1 X139.097 Y78.974 E112.49053
G1 X139.097 Y79.101 E112.49686
G1 X138.848 Y78.974 E112.49992
G1 X138.761 Y78.961 E112.50368
G1 X138.197 Y78.872 E112.53217
G1 X137.633 Y78.961 E112.56065
G1 X137.546 Y78.974 E112.56504
G1 X137.297 Y79.101 E112.57899
G1 X137.297 Y78.974
G1 X137.297 Y78.886 E112.58275
G1 X137.297 Y73.054 E112.87371
G1 X136.586 Y73.054 E112.90918
G1 X136.585 Y71.704 E112.97653
G1 X136.585 Y71.504 E112.98651
G1 X136.785 Y71.504 E112.99297
